X:19221
T:Yorkshire Hornpipe. BF13.052
M:2/2
L:1/8
Q:150
S:J.Lishman()MS,c1825,Lakes,Browne Coll.
R:Hornpipe
O:England
A:Lakes
Z:vmp.Cherri Graebe.
K:D major
A2 AB AFDF|AFdB AFED|GBGE FAFD|E2EEE2AG|!
FDFAd2f2|edcB A2d2|cecA BdBG|A2AAA2:|!
|:cd|"Qu"e2ef ecAc|ecaf ecBA|dfdB cecA|B2BBB2Ac|!
dcBA "Qu"F2ED|GABc d2cB|A2GF EGFE|D2DDD4:|]
